kolibri/core/assets/src/views/points-icon/icons/leaf.svg

<svg xmlns="http://www.w3.org/2000/svg" viewBox="270.8 117.7 84.7 84.8">
  <path fill="#83759E" d="M292.3 178.4l-21.5 13 11.2 11.1 13.2-21.2z"/>
  <path fill="#9FD29D" d="M334.5 138.9l20.5-20.5c-.9-.9-7.2-.9-15.9.2l-4.6 20.3z"/>
  <path fill="#BADBC4" d="M332.7 119.5c2.2-.3 4.4-.6 6.3-.9l-2.8 12.5-3.5-11.6z"/>
  <path fill="#7CB6A2" d="M316.3 157l6.5-6.5-8.7-26.8c-6.9 2-13.9 4.7-19.5 7.9l21.7 25.4z"/>
  <path fill="#717799" d="M277.9 152.6c.5-2.2 1.4-4.4 2.4-6.3l27.1 19.5-1.9 2.2-27.6-15.4z"/>
  <path fill="#74658E" d="M305.3 167.9l-17.6 17.6c-9.1-9.1-12.3-21.9-9.8-32.9l27.4 15.3z"/>
  <path fill="#749BB5" d="M307.5 165.9l8.9-8.9-6.3-7.4-26-9.4c-1.6 1.9-2.8 4.1-3.7 6.1l27.1 19.6z"/>
  <path fill="#8FD4DC" d="M295.2 144.3l-11.2-4.1c.6-.8 1.2-1.6 1.9-2.2.8-.8 1.7-1.7 2.8-2.5l6.5 8.8z"/>
  <path fill="#6F93A2" d="M288.8 135.5c1.7-1.4 3.6-2.5 5.8-3.8l15.4 18-14.8-5.4-6.4-8.8z"/>
  <path fill="#5CB28F" d="M322.8 150.6l1.9-1.9-6.8-26c-1.3.3-2.5.6-3.8 1.1l8.7 26.8z"/>
  <path fill="#8CBF94" d="M317.9 122.7c5-1.4 10.1-2.4 14.8-3.2l3.5 11.6-1.7 7.8-9.9 9.9-6.7-26.1z"/>
  <path fill="#70B798" d="M351.6 151.2c1.6-6.8 2.7-13.4 3.3-18.7l-18.1 4.1-9.6 9.6 10.4 6.6 14-1.6z"/>
  <path fill="#78CABC" d="M351.6 151.2c-.6 2.8-1.4 5.8-2.4 8.8l-11.7-7.2 14.1-1.6z"/>
  <path fill="#5D7783" d="M313.5 196.2c5.7 0 11.2-1.6 16.1-4.6L317.3 156l-6.8 6.6-6.6 14.5 9.6 19.1z"/>
  <path fill="#736586" d="M313.5 196.2c-5.5 0-11.3-1.3-16.5-3.9l6.9-15.1 9.6 19z"/>
  <path fill="#9794B7" d="M310.5 162.7l-22.8 22.8c2.8 2.8 6 5 9.3 6.8l13.5-29.6z"/>
  <path fill="#457584" d="M334.1 164.9l9.5 10.2c-2.4 4.9-5 9.1-8.2 12.3-.9.9-1.9 1.7-2.8 2.5l1.5-25z"/>
  <path fill="#527D8E" d="M332.6 189.8c-.9.8-1.9 1.4-3 2L317.3 156l4.4-4.4 12.4 13.2-1.5 25z"/>
  <path fill="#619986" d="M343.6 175.1c2.2-4.6 4.1-9.8 5.7-15.1l-22-13.9-5.5 5.5 21.8 23.5"/>
  <path fill="#80C1A8" d="M338.4 135l16.5-16.5c.6.6.8 4.7.3 10.9l-16.8 5.6z"/>
  <path fill="#83CCC0" d="M336.8 136.6l18.1-4.1c.2-1.1.2-2.2.3-3.2l-16.9 5.7-1.5 1.6"/>
</svg>

<?xml version="1.0" encoding="utf-8"?>
<!-- Generator: Adobe Illustrator 18.0.0, SVG Export Plug-In . SVG Version: 6.00 Build 0)  -->
<!DOCTYPE svg PUBLIC "-//W3C//DTD SVG 1.1//EN" "http://www.w3.org/Graphics/SVG/1.1/DTD/svg11.dtd">
<svg version="1.1" id="Layer_1" xmlns="http://www.w3.org/2000/svg" xmlns:xlink="http://www.w3.org/1999/xlink" x="0px" y="0px"
	 viewBox="270.8 117.7 84.7 84.8" enable-background="new 270.8 117.7 84.7 84.8" xml:space="preserve">
<polygon fill="#83759E" points="292.3,178.4 270.8,191.4 282,202.5 295.2,181.3 "/>
<path fill="#9FD29D" d="M334.5,138.9l20.5-20.5c-0.9-0.9-7.2-0.9-15.9,0.2L334.5,138.9z"/>
<path fill="#BADBC4" d="M332.7,119.5c2.2-0.3,4.4-0.6,6.3-0.9l-2.8,12.5L332.7,119.5z"/>
<path fill="#7CB6A2" d="M316.3,157l6.5-6.5l-8.7-26.8c-6.9,2-13.9,4.7-19.5,7.9L316.3,157z"/>
<path fill="#717799" d="M277.9,152.6c0.5-2.2,1.4-4.4,2.4-6.3l27.1,19.5l-1.9,2.2L277.9,152.6z"/>
<path fill="#74658E" d="M305.3,167.9l-17.6,17.6c-9.1-9.1-12.3-21.9-9.8-32.9L305.3,167.9z"/>
<path fill="#749BB5" d="M307.5,165.9l8.9-8.9l-6.3-7.4l-26-9.4c-1.6,1.9-2.8,4.1-3.7,6.1L307.5,165.9z"/>
<path fill="#8FD4DC" d="M295.2,144.3l-11.2-4.1c0.6-0.8,1.2-1.6,1.9-2.2c0.8-0.8,1.7-1.7,2.8-2.5L295.2,144.3z"/>
<path fill="#6F93A2" d="M288.8,135.5c1.7-1.4,3.6-2.5,5.8-3.8l15.4,18l-14.8-5.4L288.8,135.5z"/>
<path fill="#5CB28F" d="M322.8,150.6l1.9-1.9l-6.8-26c-1.3,0.3-2.5,0.6-3.8,1.1L322.8,150.6z"/>
<path fill="#8CBF94" d="M317.9,122.7c5-1.4,10.1-2.4,14.8-3.2l3.5,11.6l-1.7,7.8l-9.9,9.9L317.9,122.7z"/>
<path fill="#70B798" d="M351.6,151.2c1.6-6.8,2.7-13.4,3.3-18.7l-18.1,4.1l-9.6,9.6l10.4,6.6L351.6,151.2z"/>
<path fill="#78CABC" d="M351.6,151.2c-0.6,2.8-1.4,5.8-2.4,8.8l-11.7-7.2L351.6,151.2z"/>
<path fill="#5D7783" d="M313.5,196.2c5.7,0,11.2-1.6,16.1-4.6l-12.3-35.6l-6.8,6.6l-6.6,14.5L313.5,196.2z"/>
<path fill="#736586" d="M313.5,196.2c-5.5,0-11.3-1.3-16.5-3.9l6.9-15.1L313.5,196.2z"/>
<path fill="#9794B7" d="M310.5,162.7l-22.8,22.8c2.8,2.8,6,5,9.3,6.8L310.5,162.7z"/>
<path fill="#457584" d="M334.1,164.9l9.5,10.2c-2.4,4.9-5,9.1-8.2,12.3c-0.9,0.9-1.9,1.7-2.8,2.5L334.1,164.9z"/>
<path fill="#527D8E" d="M332.6,189.8c-0.9,0.8-1.9,1.4-3,2l-12.3-35.8l4.4-4.4l12.4,13.2L332.6,189.8z"/>
<path fill="#619986" d="M343.6,175.1c2.2-4.6,4.1-9.8,5.7-15.1l-22-13.9l-5.5,5.5L343.6,175.1"/>
<path fill="#80C1A8" d="M338.4,135l16.5-16.5c0.6,0.6,0.8,4.7,0.3,10.9L338.4,135z"/>
<path fill="#83CCC0" d="M336.8,136.6l18.1-4.1c0.2-1.1,0.2-2.2,0.3-3.2l-16.9,5.7L336.8,136.6"/>
</svg>
